X:0
T:The Iron Horse
M:C
L:1/8
B:The Greig-Duncan Folk Song Collection, II, p. 291
K:D
A3/2G/|F/ D3/2 D3/2 D/ D3/2 D/ D3/2 D/|D3/2 F/ A3/2 G/ F2 D3/2 D/|
w:Come_ Hie-la-men, come Low-lan' men, Come il-ka man on earth man, And
C3/2 E/ E3/2 E/ E3/2 E/ E3/2 E/|E3/2 e/ e3/2 d/ c2 A|| d/ d/|
w:I'll tell you how I cam' on be-tween Dun-dee & Perth man, It was
d/ c3/2 B/ A3/2 G3/2 G/ G3/2 G/|G3/2 G/ G/ G3/2 B2 A A/ G/|
w:hurled_ in a four-wheeled horse the like I nev-er saw man, It was
F/ D3/2 D3/2 D/ D3/2 D/ D3/2 D/| E3/2 F/ E3/2 D/ C2 A,z||
w:rug-git by an i-ron horse, An aw-fu' beast to draw man.
D2 D3/2 D/ D2 z2|B2 B3/2 c/ d/ B3/2 A/ G3/2|F3/2 D/ E3/2 D/ Dz|]
w:Fal al di dal, Fal al di ra-die ta-die, Right fal al di dal.The version in Robert Ford's Vagabond Songs and Ballads of Scotland [1st series] (Alexander Gardner, 1899, pp. 179-82; without music) is longer. THE IRON HORSE
